X: 140589
T: Night I Spent Down at Brady's (The)
S: J.O'Brien: "Irish Folk Dance Music"
Z: B.Black 
M: 6/8
L: 1/8
R: jig 
K: G
D | D2 G GFG | ABc d2 e | =fef ded | cAG =FDC |
D2 G GFG | ABc d2 e | =fed BA^F | G3 G2 :|
f | gfg def | gfg a2 g | =fef ded | cAG =F2 f |
gfg def | gfg a2 g | =fed cA^F | G3 G2 :|
f | gfg def | gfg a2 g | =fef ded | cAG =FDC |
DGG GFG | ABc d2 e | =fed cA^F | G3 G2 :|
